lib/healthicons/icons/outline/symbols/geo_location.svg

<svg fill="none" height="48" viewBox="0 0 48 48" width="48" xmlns="http://www.w3.org/2000/svg"><path clip-rule="evenodd" d="m15.5168 11.5352c2.2509-2.26426 5.3025-3.5352 8.4832-3.5352s6.2323 1.27094 8.4832 3.5352c2.2511 2.2644 3.5168 5.3368 3.5168 8.5417 0 5.5266-3.0639 10.5278-6.2565 14.2211-1.5843 1.8327-3.1712 3.3095-4.3621 4.3278-.566.4839-1.0409.8629-1.3814 1.1259-.3405-.263-.8154-.642-1.3814-1.1259-1.1909-1.0183-2.7778-2.4951-4.3621-4.3278-3.1926-3.6933-6.2565-8.6945-6.2565-14.2211 0-3.2049 1.2657-6.2773 3.5168-8.5417zm7.9068 30.282c.0004.0002.0007.0004.5764-.8172.5757.8176.576.8174.5764.8172-.3453.2431-.8075.2431-1.1528 0zm0 0 .5764-.8172.5764.8172.0036-.0026.0091-.0064.0318-.0228c.0273-.0196.0666-.048.117-.085.1008-.0741.2463-.1826.4302-.3239.3676-.2827.889-.6971 1.513-1.2306 1.2466-1.0659 2.9097-2.6131 4.5754-4.54 3.3074-3.826 6.7435-9.2864 6.7435-15.529 0-3.7315-1.4736-7.3114-4.0984-9.9518-2.6251-2.64056-6.1867-4.1251-9.9016-4.1251s-7.2765 1.48454-9.9016 4.1251c-2.6248 2.6404-4.0984 6.2203-4.0984 9.9518 0 6.2426 3.4361 11.703 6.7435 15.529 1.6657 1.9269 3.3288 3.4741 4.5754 4.54.624.5335 1.1454.9479 1.513 1.2306.1839.1413.3294.2498.4302.3239.0504.037.0897.0654.117.085l.0318.0228.0091.0064zm-3.4236-21.8172c0-2.2091 1.7909-4 4-4s4 1.7909 4 4-1.7909 4-4 4-4-1.7909-4-4zm4-6c-3.3137 0-6 2.6863-6 6s2.6863 6 6 6 6-2.6863 6-6-2.6863-6-6-6z" fill="#333" fill-rule="evenodd"/></svg>

<svg width="48" height="48" viewBox="0 0 48 48" fill="none" xmlns="http://www.w3.org/2000/svg">
<path fill-rule="evenodd" clip-rule="evenodd" d="M15.5168 11.5352C17.7677 9.27094 20.8193 8 24 8C27.1807 8 30.2323 9.27094 32.4832 11.5352C34.7343 13.7996 36 16.872 36 20.0769C36 25.6035 32.9361 30.6047 29.7435 34.298C28.1592 36.1307 26.5723 37.6075 25.3814 38.6258C24.8154 39.1097 24.3405 39.4887 24 39.7517C23.6595 39.4887 23.1846 39.1097 22.6186 38.6258C21.4277 37.6075 19.8408 36.1307 18.2565 34.298C15.0639 30.6047 12 25.6035 12 20.0769C12 16.872 13.2657 13.7996 15.5168 11.5352ZM23.4236 41.8172C23.424 41.8174 23.4243 41.8176 24 41C24.5757 41.8176 24.576 41.8174 24.5764 41.8172C24.2311 42.0603 23.7689 42.0603 23.4236 41.8172ZM23.4236 41.8172L24 41L24.5764 41.8172L24.58 41.8146L24.5891 41.8082L24.6209 41.7854C24.6482 41.7658 24.6875 41.7374 24.7379 41.7004C24.8387 41.6263 24.9842 41.5178 25.1681 41.3765C25.5357 41.0938 26.0571 40.6794 26.6811 40.1459C27.9277 39.08 29.5908 37.5328 31.2565 35.6059C34.5639 31.7799 38 26.3195 38 20.0769C38 16.3454 36.5264 12.7655 33.9016 10.1251C31.2765 7.48454 27.7149 6 24 6C20.2851 6 16.7235 7.48454 14.0984 10.1251C11.4736 12.7655 10 16.3454 10 20.0769C10 26.3195 13.4361 31.7799 16.7435 35.6059C18.4092 37.5328 20.0723 39.08 21.3189 40.1459C21.9429 40.6794 22.4643 41.0938 22.8319 41.3765C23.0158 41.5178 23.1613 41.6263 23.2621 41.7004C23.3125 41.7374 23.3518 41.7658 23.3791 41.7854L23.4109 41.8082L23.42 41.8146L23.4236 41.8172ZM20 20C20 17.7909 21.7909 16 24 16C26.2091 16 28 17.7909 28 20C28 22.2091 26.2091 24 24 24C21.7909 24 20 22.2091 20 20ZM24 14C20.6863 14 18 16.6863 18 20C18 23.3137 20.6863 26 24 26C27.3137 26 30 23.3137 30 20C30 16.6863 27.3137 14 24 14Z" fill="#333333"/>
</svg>
